X: 1
T: Dobbin's Flowery Vale
M: 4/4
L: 1/8
Q: 120
S: Frankie Kennedy
R: slow reel
N: Frankie Kennedy recorded this using a Bb flute.  This transcription is transposed and written for D flute
D: Altan - Harvest Storm
H: Frankie Kennedy learned this from a tape of a BBC recording of Robert Cinnamond of Glenavy, Co. Antrim
Z: Tom Madden
K: Edor
B2GB EBGB|A2FA DAFA|B2GB EBGA|(3Bcd ef gfed|
B2GB EBGB|A2FA DAFA|BAGF EFGA|(3Bcd ed (3Bcd ef||
g2gf gfed|BdA=c Bdef|g2gf gfed|BdA=c BEef|
gbaf gfed|B2AB GAFG|EDEF GzGA|AGdB gfed||
% Variation B-part bars 5-6 |g2gf gfed|B2AB GBFB|
